X: 22
T: La Romanella
R: jig
Z: 2010 John Chambers <jc:trillian.mit.edu>
F: http://www.asaplive.com/archive/detail.asp?id=R1200008
N: Link from "Andy Turner" <magpielane@dsl.pipex.com> tradtunes 2010-12-17
N: From a tune book which is part of the Cocks Collection held by Northumberland Record Office  at
N: Gosforth, with photocopies at the Black Gate and Morpeth Chantry. The book is a real miscellany
N: of styles, and covers the gamut of 19th century light music. It is anonymous, and evidently the
N: work  of  several  different  hands,  but  nevertheless has some traditional items of interest,
N: including some rare and unique tunes.
M: 6/8
L: 1/8
K: Bb
f |\
b2f f=ef | d2B BAB | c2c cde | fdB B2f |\
b2f f=ef | d2B BAB | cgf edc | B3- B2 :|
|: d |\
F2F FGA  | B2B BAB | c2c cde | edd d2f |\
b2f f=ef | d2B BAB | cgf edc | B3- !fine!B2 :|
|: c |\
d2d dcd | G2G GAB | A2A AGA | BAB G2B/c/ |\
d2d dcd | G2G GAB | A2A AGA | G3- G2  :|
|: B |\
A2e d2c | BAB G2B | A2e d2c | B3 G2B |\
d2d dcd | G2G GAB | A2A AGA | G3- !D.Capo!G2 :|


%%sep 5 1 500

